icons/shield_ca_bc_2.svg

<svg viewBox="0 0 5.292 5.292" height="20" width="20" xmlns="http://www.w3.org/2000/svg">
 <path style="fill:#fff;fill-opacity:1;stroke:#003f87;stroke-width:.2646;stroke-linecap:butt;stroke-linejoin:miter;stroke-miterlimit:4;stroke-dasharray:none;stroke-opacity:1" d="M 0.26461666,0.66153333 1.7199,0.6615 V 0.1323 H 3.5721 V 0.6615 L 5.0271166,0.66153334 4.7625333,1.1907 4.7625,3.571875 c -1.23e-5,0.8819444 -1.2347223,1.5874999 -2.1166667,1.5874999 -0.8819444,0 -2.11667897,-0.7055555 -2.11666663,-1.5874999 L 0.5292,1.1907 Z"/>
 <path style="fill:none;stroke:#003f87;stroke-width:.2646;stroke-linecap:butt;stroke-linejoin:miter;stroke-miterlimit:4;stroke-dasharray:none;stroke-opacity:1" d="M 4.7628333,1.1907417 3.5721,1.1907 V 0.6615 M 0.52923333,1.1907417 1.7199,1.1907 V 0.6615"/>
</svg>

<svg viewBox="0 0 5.292 5.292" height="20" width="20" xmlns="http://www.w3.org/2000/svg">
 <path style="fill:#fff;fill-opacity:1;stroke:#003f87;stroke-width:.2646;stroke-linecap:butt;stroke-linejoin:miter;stroke-miterlimit:4;stroke-dasharray:none;stroke-opacity:1" d="M.265.662H1.72v-.53h1.852v.53h1.455l-.264.529v2.38c0 .883-1.235 1.588-2.117 1.588-.882 0-2.117-.705-2.117-1.587V1.19Z"/>
 <path style="fill:none;stroke:#003f87;stroke-width:.2646;stroke-linecap:butt;stroke-linejoin:miter;stroke-miterlimit:4;stroke-dasharray:none;stroke-opacity:1" d="M4.763 1.19h-1.19V.663M.528 1.19h1.19V.66"/>
</svg>
